frontend/public/svg/interface/send-3.svg

<svg width="164" height="160" viewBox="0 0 164 160" fill="none" xmlns="http://www.w3.org/2000/svg">
<g clip-path="url(#clip0)">
<path d="M153.243 21.2202C152.21 22.0228 151.572 22.4229 151.049 22.9374C130.642 43.0176 110.251 63.1125 89.8745 83.2222C85.0497 88.0008 80.5509 93.1084 75.8963 98.0515C75.108 98.9868 74.235 99.8473 73.2883 100.622C72.7686 101.06 72.1147 101.308 71.4353 101.326C70.7553 101.345 70.0889 101.132 69.5465 100.723C69.0464 100.348 68.6923 99.8115 68.5437 99.2053C68.395 98.5992 68.4615 97.9604 68.7321 97.3979C69.2315 96.0444 69.9494 94.7813 70.8576 93.6587C75.552 88.0105 80.0163 82.1224 85.1495 76.8931C104.735 56.9413 124.547 37.2105 144.27 17.394C145.179 16.4834 146.055 15.5343 147.408 14.121C143.125 14.121 139.579 14.2192 136.043 14.0852C133.817 14.0273 131.603 13.744 129.435 13.2397C127.138 12.6732 126.148 10.8124 126.762 8.99122C127.261 7.50634 128.598 6.75525 130.826 6.74485C136.511 6.71883 142.198 6.79486 147.879 6.65177C151.326 6.56462 154.765 6.15554 158.206 5.87131C162.613 5.51099 164.262 7.60462 163.249 11.935C162.829 14.1124 162.573 16.3177 162.481 18.5328C161.998 24.5094 161.616 30.4951 161.076 36.4665C160.911 37.7898 160.525 39.0762 159.935 40.2725C159.591 41.1033 158.983 41.7984 158.204 42.2511C157.426 42.7037 156.519 42.8886 155.625 42.7779C154.73 42.6327 153.917 42.1708 153.335 41.4766C152.753 40.7824 152.441 39.9025 152.457 38.9977C152.366 36.1164 152.613 33.2235 152.749 30.3376C152.88 27.4745 153.056 24.612 153.243 21.2202Z" fill="black"/>
<path d="M114.321 6.46201C114.071 9.31016 111.656 10.8047 108.79 10.7586C97.8829 10.5816 90.9906 11.5893 80.0807 11.3636C66.036 11.0728 51.9905 10.6188 37.9451 10.6012C31.7599 10.5822 25.5832 11.0631 19.4759 12.0392C15.4081 12.6968 12.95 13.0851 11.2548 20.5811C10.4829 23.995 9.87716 73.7972 9.95996 88.153C10.0565 104.846 9.95409 121.541 9.92932 138.234C9.92091 140.445 10.0691 142.654 10.3727 144.844C10.6078 146.513 11.4126 148.049 12.6515 149.194C13.8903 150.34 15.4874 151.024 17.173 151.131C17.5812 151.156 17.988 151.171 18.3949 151.17C39.15 151.148 59.9084 151.229 80.661 150.917C96.7237 150.675 112.775 149.731 128.848 150.429C132.636 150.593 136.438 150.607 140.228 150.5C141.199 150.464 142.168 150.377 143.131 150.24C144.381 150.071 145.536 149.486 146.411 148.579C147.284 147.672 147.825 146.496 147.945 145.244C148.289 141.592 148.698 137.923 148.674 134.264C148.548 114.639 149.472 78.7923 149.441 56.907C149.44 55.7619 149.853 54.6546 150.604 53.7891C151.355 52.9236 152.395 52.3578 153.532 52.1959C154.208 52.0986 154.897 52.1475 155.553 52.3392C156.209 52.5308 156.815 52.8609 157.332 53.3068C157.849 53.7528 158.263 54.3045 158.548 54.9243C158.832 55.544 158.979 56.2176 158.98 56.8992C158.99 81.2717 158.577 113.494 158.537 136.21C158.482 140.453 157.946 144.676 156.94 148.799C156.286 151.542 154.787 154.013 152.653 155.863C150.519 157.713 147.858 158.85 145.043 159.113C142.679 159.341 140.303 159.428 137.927 159.377C118.517 158.915 99.1106 158.821 74.7767 159.856C58.9584 159.856 38.2072 159.901 17.4573 159.803C14.566 159.713 11.6921 159.32 8.88286 158.632C5.56159 157.906 2.58068 155.702 1.9678 152.377C1.15459 147.702 0.761798 142.963 0.794167 138.217C0.736139 120.972 1.11426 103.728 1.21337 86.4827C1.3066 70.1263 1.17888 53.7673 1.30211 37.4135C1.36166 29.5219 1.62243 21.6343 2.08448 13.7505C2.37723 8.78919 4.9996 5.23021 9.83941 3.47802C15.8834 1.2933 22.1765 0.948562 28.5368 0.850351C41.5827 0.647424 54.639 0.530915 67.681 0.826852C84.3442 1.20604 92.5594 1.27566 108.422 1.88249C111.538 2.00216 114.594 3.36221 114.323 6.46074L114.321 6.46201Z" fill="black"/>
</g>
<defs>
<clipPath id="clip0">
<rect width="163" height="160" fill="white" transform="translate(0.777344)"/>
</clipPath>
</defs>
</svg>

<svg xmlns="http://www.w3.org/2000/svg" width="164" height="160" fill="none" viewBox="0 0 164 160"><g fill="#000" clip-path="url(#a)"><path d="M153.243 21.22c-1.033.803-1.671 1.203-2.194 1.717a57965 57965 0 0 0-61.175 60.285c-4.824 4.779-9.323 9.886-13.978 14.83a20 20 0 0 1-2.608 2.57 3 3 0 0 1-1.853.704 3 3 0 0 1-1.889-.603 2.7 2.7 0 0 1-.814-3.325 13.2 13.2 0 0 1 2.126-3.74c4.694-5.648 9.158-11.536 14.292-16.765 19.585-19.952 39.397-39.682 59.12-59.499.909-.91 1.785-1.86 3.138-3.273-4.283 0-7.829.098-11.365-.036a33 33 0 0 1-6.608-.845c-2.297-.567-3.287-2.428-2.673-4.249.499-1.485 1.836-2.236 4.064-2.246 5.685-.026 11.372.05 17.053-.093 3.447-.087 6.886-.496 10.327-.78 4.407-.361 6.056 1.733 5.043 6.063a44.6 44.6 0 0 0-.768 6.598c-.483 5.976-.865 11.962-1.405 17.934a12 12 0 0 1-1.141 3.806 4.1 4.1 0 0 1-1.731 1.978 4.12 4.12 0 0 1-2.579.527 3.78 3.78 0 0 1-2.29-1.301 3.76 3.76 0 0 1-.878-2.48c-.091-2.88.156-5.773.292-8.66.131-2.863.307-5.725.494-9.117"/><path d="M114.321 6.462c-.25 2.848-2.665 4.343-5.531 4.297-10.907-.177-17.8.83-28.71.605-14.044-.291-28.09-.745-42.135-.763a115 115 0 0 0-18.47 1.438c-4.067.658-6.525 1.046-8.22 8.542-.772 3.414-1.378 53.216-1.295 67.572.096 16.693-.006 33.388-.03 50.081a47 47 0 0 0 .443 6.61 7.3 7.3 0 0 0 2.279 4.35 7.34 7.34 0 0 0 4.521 1.937q.612.039 1.222.039c20.755-.022 41.513.059 62.266-.253 16.063-.242 32.114-1.186 48.187-.488 3.788.164 7.59.178 11.38.071a28 28 0 0 0 2.903-.26 5.58 5.58 0 0 0 4.814-4.996c.344-3.652.753-7.321.729-10.98-.126-19.625.798-55.472.767-77.357a4.75 4.75 0 0 1 4.091-4.711 4.78 4.78 0 0 1 3.8 1.11 4.76 4.76 0 0 1 1.648 3.592c.01 24.374-.403 56.596-.443 79.312a56.2 56.2 0 0 1-1.597 12.589 13.5 13.5 0 0 1-4.287 7.064 13.54 13.54 0 0 1-7.61 3.25 61 61 0 0 1-7.116.264c-19.41-.462-38.816-.556-63.15.479-15.819 0-36.57.045-57.32-.053a41.5 41.5 0 0 1-8.574-1.171c-3.321-.726-6.302-2.93-6.915-6.255a79.5 79.5 0 0 1-1.174-14.16c-.058-17.245.32-34.489.42-51.734.093-16.357-.035-32.716.088-49.07q.09-11.837.782-23.662C2.377 8.789 5 5.23 9.84 3.478 15.883 1.293 22.177.948 28.537.85 41.583.647 54.639.53 67.68.827c16.663.379 24.878.449 40.741 1.055 3.116.12 6.172 1.48 5.901 4.579z"/></g><defs><clipPath id="a"><path fill="#fff" d="M.777 0h163v160h-163z"/></clipPath></defs></svg>
